X: 20183
T: GIPSY QUADRILLES No 3.--la Poule
%R: jig
B: W. Hamilton "Universal Tune-Book" Vol. 2 Glasgow 1846 p.18 #3
S: http://s3-eu-west-1.amazonaws.com/itma.dl.printmaterial/book_pdfs/hamiltonvol2web.pdf
Z: 2016 John Chambers <jc:trillian.mit.edu>
N: Added missing rest as "pickup" to 3rd strain.
M: 6/8
L: 1/8
K: D
% - - - - - - - - - - - - - - - - - - - - - - - - -
A |\
d2A F2A | B2A AGF | (F2E) (G2F) | B3 (ABc) |\
d2A F2A | B2A AGF | EFG B2A | D3- D2 H|] [K:=c][K:G]\
D |\
G3 AGA | B2d G2g | f2c A2e | dgd BdB |
G3 AGA | B2d g2f | e2c A2F | G3 "^D.C."g2 |]\
z |\
B2c B2c | d2g B2b | agf edc | Bed Aed |\
B2c B2c | d2g b2a | gfe dcA | G3 "^D.C."G2 |]
% - - - - - - - - - - - - - - - - - - - - - - - - -

%%sep 1 1 500
%%sep 1 1 500

